public/assets/img/app/svg/happy.svg

<svg width="48" height="48" viewBox="0 0 48 48" fill="none" xmlns="http://www.w3.org/2000/svg">
<path d="M22.6667 48C35.1851 48 45.3333 37.8517 45.3333 25.3333C45.3333 12.8148 35.1851 2.66663 22.6667 2.66663C10.1482 2.66663 0 12.8148 0 25.3333C0 37.8517 10.1482 48 22.6667 48Z" fill="#FFCC4D"/>
<path d="M23.9986 38.0002C25.4714 38.0002 26.6653 36.5078 26.6653 34.6668C26.6653 32.8259 25.4714 31.3335 23.9986 31.3335C22.5259 31.3335 21.332 32.8259 21.332 34.6668C21.332 36.5078 22.5259 38.0002 23.9986 38.0002Z" fill="#664500"/>
<path d="M10.8148 28.5105C10.5722 28.5105 10.3255 28.4438 10.1055 28.3052C9.48284 27.9132 9.29618 27.0905 9.68818 26.4665C10.9095 24.5292 14.6228 21.2158 19.9415 22.5172C20.6562 22.6918 21.0935 23.4145 20.9188 24.1292C20.7428 24.8438 20.0175 25.2785 19.3068 25.1065C14.5015 23.9305 11.9708 27.8478 11.9455 27.8878C11.6908 28.2905 11.2575 28.5105 10.8148 28.5105ZM26.7788 23.5212C26.3922 23.5212 26.0108 23.3545 25.7468 23.0332C25.2802 22.4638 25.3628 21.6225 25.9335 21.1558C30.1682 17.6838 34.9495 19.0732 36.8868 20.2945C37.5095 20.6865 37.6962 21.5105 37.3028 22.1332C36.9122 22.7532 36.0922 22.9425 35.4682 22.5532C35.2842 22.4412 31.3988 20.1225 27.6228 23.2185C27.3748 23.4225 27.0762 23.5212 26.7788 23.5212Z" fill="#664500"/>
<path d="M17.7947 41.6972C17.704 41.6972 17.612 41.6852 17.5214 41.6599C16.9907 41.5092 16.6814 40.9572 16.832 40.4252C17.4147 38.3719 17.176 36.3865 16.1787 34.9772C15.516 34.0412 14.572 33.4692 13.588 33.4065C13.036 33.3732 12.6174 32.8972 12.652 32.3465C12.6867 31.7959 13.16 31.3452 13.712 31.4119C15.3027 31.5105 16.796 32.3892 17.8094 33.8212C19.1574 35.7265 19.5027 38.3319 18.7547 40.9692C18.6307 41.4105 18.2294 41.6972 17.7947 41.6972ZM32.5107 37.6159C32.3214 37.6159 32.1307 37.5625 31.9614 37.4505C30.4054 36.4239 29.5347 34.6279 29.572 32.5239C29.6107 30.3439 30.6507 28.3199 32.2174 27.3652C32.688 27.0772 33.3027 27.2265 33.5907 27.6999C33.8787 28.1719 33.7294 28.7852 33.256 29.0732C32.276 29.6705 31.5974 31.0719 31.5707 32.5585C31.544 33.9652 32.0894 35.1399 33.0614 35.7812C33.5227 36.0852 33.6494 36.7052 33.3454 37.1665C33.1534 37.4585 32.836 37.6159 32.5107 37.6159Z" fill="#E2A62D"/>
<path d="M22.9052 3.62679C22.8479 3.56146 22.7585 3.52546 22.6532 3.50546C22.6532 3.50546 1.42119 -0.525206 0.502525 0.285461C-0.414809 1.09746 0.986525 22.6641 0.986525 22.6641C0.993191 22.7721 1.01719 22.8641 1.07586 22.9295C1.88119 23.8415 7.41986 20.2575 13.4479 14.9281C19.4772 9.59746 23.7105 4.53879 22.9052 3.62679Z" fill="#DD2E44"/>
<path d="M0.465462 0.361216C0.445462 0.401216 0.428128 0.455882 0.414795 0.525216C0.626795 2.35322 2.67479 17.3946 3.95079 22.0959C5.86546 21.0252 7.8108 19.5706 10.0961 17.7586C8.1548 14.2052 1.54413 0.194549 0.465462 0.361216Z" fill="#EA596E"/>
<path d="M39.8695 38.9721L25.7722 37.2348C24.2655 37.0988 21.6162 37.0855 21.7522 34.6988C21.8762 32.5348 24.4722 32.8681 26.3908 33.1521L40.5748 35.5175L39.8695 38.9721Z" fill="#FF5555"/>
<path d="M40.5733 35.5187L34.9439 34.5534C34.2853 34.4347 33.6986 35.416 33.6693 36.4547C33.6359 37.6093 33.9719 38.1933 34.6373 38.3293L40.1626 39.012L40.5733 35.5187Z" fill="#88C9F9"/>
<path d="M46.5572 35.1212L43.0612 38.3358L36.8118 31.5398L40.3078 28.3252C42.1225 26.6558 44.9732 26.7758 46.6425 28.5905L46.8225 28.7865C48.4905 30.6025 48.3718 33.4518 46.5572 35.1212Z" fill="#FF5555"/>
<path d="M43.0592 38.3379C44.5607 36.9573 44.3792 34.3168 42.6537 32.4402C40.9282 30.5635 38.3122 30.1614 36.8106 31.542C35.3091 32.9226 35.4906 35.5631 37.2161 37.4397C38.9416 39.3164 41.5577 39.7185 43.0592 38.3379Z" fill="#88C9F9"/>
<path d="M41.8093 36.9787C42.5601 36.2884 42.3295 34.8161 41.2943 33.6902C40.2591 32.5643 38.8113 32.2112 38.0605 32.9015C37.3097 33.5918 37.5403 35.0641 38.5755 36.19C39.6107 37.3158 41.0585 37.669 41.8093 36.9787Z" fill="#226699"/>
<path d="M3.33331 46.6667C4.43788 46.6667 5.33331 45.7713 5.33331 44.6667C5.33331 43.5622 4.43788 42.6667 3.33331 42.6667C2.22874 42.6667 1.33331 43.5622 1.33331 44.6667C1.33331 45.7713 2.22874 46.6667 3.33331 46.6667Z" fill="#55ACEE"/>
<path d="M38.6667 5.33333C40.1394 5.33333 41.3333 4.13943 41.3333 2.66667C41.3333 1.19391 40.1394 0 38.6667 0C37.1939 0 36 1.19391 36 2.66667C36 4.13943 37.1939 5.33333 38.6667 5.33333Z" fill="#55ACEE"/>
<path d="M6.48556 38.9946L3.36823 31.5066L0.549561 39.5666L6.48556 38.9946ZM34.6669 6.66663L29.3336 7.99996L30.6669 2.66663L34.6669 6.66663Z" fill="#EA596E"/>
<path d="M42.6653 17.3332L48 10.6652L44 7.99988L42.6653 17.3332Z" fill="#77B255"/>
</svg>

<svg xmlns="http://www.w3.org/2000/svg" width="48" height="48" fill="none"><path d="M22.667 48c12.518 0 22.667-10.148 22.667-22.667A22.67 22.67 0 0 0 22.667 2.667C10.148 2.667 0 12.815 0 25.333S10.148 48 22.667 48z" fill="#ffcc4d"/><path d="M24 38c1.473 0 2.667-1.492 2.667-3.333S25.47 31.334 24 31.334s-2.667 1.492-2.667 3.333S22.526 38 24 38zm-13.185-9.5a1.33 1.33 0 0 1-.709-.205c-.623-.392-.8-1.215-.417-1.84 1.22-1.937 4.935-5.25 10.253-3.95.715.175 1.152.897.977 1.612a1.34 1.34 0 0 1-1.612.977c-4.805-1.176-7.336 2.74-7.36 2.78-.255.403-.688.623-1.13.623zm15.964-5a1.33 1.33 0 0 1-1.032-.488c-.467-.57-.384-1.4.187-1.877 4.235-3.472 9.016-2.083 10.953-.86.623.392.8 1.216.416 1.84a1.33 1.33 0 0 1-1.835.42c-.184-.112-4.07-2.43-7.845.665-.248.204-.547.303-.844.303z" fill="#664500"/><path d="M17.795 41.697c-.09 0-.183-.012-.273-.037a1 1 0 0 1-.689-1.235c.583-2.053.344-4.04-.653-5.448-.663-.936-1.607-1.508-2.59-1.57a1 1 0 0 1-.936-1.06c.035-.55.508-1 1.06-.935 1.59.1 3.084.977 4.097 2.41 1.348 1.905 1.693 4.51.945 7.148a1 1 0 0 1-.96.728zm14.716-4.08a.99.99 0 0 1-.549-.165c-1.556-1.027-2.427-2.823-2.39-4.927.04-2.18 1.08-4.204 2.645-5.16.47-.288 1.085-.14 1.373.335s.14 1.085-.335 1.373c-.98.597-1.66 2-1.685 3.485-.027 1.407.52 2.58 1.49 3.223a1 1 0 0 1 .284 1.385c-.192.292-.51.45-.835.45z" fill="#e2a62d"/><path d="M22.905 3.627c-.057-.065-.147-.1-.252-.12 0 0-21.232-4.03-22.15-3.22s.484 22.38.484 22.38c.007.108.03.2.09.265.805.912 6.344-2.672 12.372-8s10.263-10.39 9.457-11.3z" fill="#dd2e44"/><path d="M.465.36C.445.4.428.456.415.525c.212 1.828 2.26 16.87 3.536 21.57 1.915-1.07 3.86-2.525 6.145-4.337C8.155 14.205 1.544.195.465.36z" fill="#ea596e"/><path d="M39.87 38.972l-14.097-1.737c-1.507-.136-4.156-.15-4.02-2.536.124-2.164 2.72-1.83 4.64-1.547l14.184 2.365-.705 3.455z" fill="#f55"/><path d="M40.573 35.52l-5.63-.965c-.66-.12-1.245.863-1.275 1.9-.033 1.155.303 1.74.968 1.875l5.525.683.41-3.493z" fill="#88c9f9"/><path d="M46.557 35.12l-3.496 3.215-6.25-6.796 3.496-3.215a4.5 4.5 0 0 1 6.335.265l.18.196a4.5 4.5 0 0 1-.265 6.335z" fill="#f55"/><path d="M43.06 38.338c1.502-1.38 1.32-4.02-.405-5.898s-4.342-2.28-5.843-.898-1.32 4.02.405 5.898 4.342 2.28 5.843.898z" fill="#88c9f9"/><path d="M41.81 36.98c.75-.7.52-2.163-.515-3.29s-2.483-1.48-3.234-.79-.52 2.163.515 3.288 2.483 1.48 3.234.79z" fill="#269"/><path d="M3.333 46.667a2 2 0 1 0 0-4 2 2 0 1 0 0 4zM38.667 5.333a2.67 2.67 0 0 0 2.667-2.667C41.334 1.193 40.14 0 38.667 0A2.67 2.67 0 0 0 36 2.667a2.67 2.67 0 0 0 2.667 2.667z" fill="#55acee"/><path d="M6.486 38.995l-3.117-7.488-2.82 8.06 5.936-.572zm28.18-32.328L29.334 8l1.333-5.333 4 4z" fill="#ea596e"/><path d="M42.665 17.333L48 10.665 44 8l-1.335 9.333z" fill="#77b255"/></svg>
